X:73
T:Molly My Dear [2] 
B:CGI.176
F:file ID jcgi/73molly_2
Z:bill@capeirish.com
Q:60
L:1/8
M:3/8
R:waltz
K:Em 
"tenderly"
G/A/|BBc|A2F|G2E|FEE|E2||
B/>A/|GEG|B>cd|e>fe|dBG|A2||
B/A/|GEG|B>cd|e>fe|dBG|HA2||
BBc|A2F|G2E|FEE|E3 |]

